icons/opengl.svg

<svg width="16" height="16" viewBox="0 0 16 16" fill="none" xmlns="http://www.w3.org/2000/svg">
<path fill-rule="evenodd" clip-rule="evenodd" d="M10 3C11.1878 3 12.295 3.28763 13.2267 3.78386C11.9315 2.68251 10.1326 2 8.14388 2C4.19843 2 1 4.68629 1 8C1 11.3137 4.19843 14 8.14388 14C10.1326 14 11.9315 13.3175 13.2267 12.2161C12.295 12.7124 11.1878 13 10 13C6.68629 13 4 10.7614 4 8C4 5.23858 6.68629 3 10 3ZM8.58819 10.8275C8.31946 10.9424 8.04807 11 7.77432 11C7.3421 11 6.95357 10.9235 6.6084 10.7712C6.26318 10.6186 5.97217 10.4084 5.73502 10.1406C5.49787 9.87292 5.31614 9.55829 5.18966 9.19687C5.06323 8.83548 5 8.44574 5 8.0281C5 7.59992 5.06308 7.20226 5.18915 6.8354C5.31529 6.46868 5.49657 6.14879 5.73314 5.87563C5.96976 5.60247 6.26044 5.38839 6.6054 5.23294C6.95038 5.07771 7.33892 5 7.77114 5C8.06089 5 8.34138 5.04431 8.61267 5.13282C8.88406 5.22145 9.12902 5.3516 9.34776 5.52326C9.56643 5.69492 9.74684 5.90655 9.88908 6.158C10.0314 6.40963 10.1185 6.69823 10.15 7.02418H8.96461C8.89078 6.70371 8.74847 6.46318 8.53775 6.30287C8.32685 6.14252 8.07135 6.06237 7.77111 6.06237C7.4918 6.06237 7.25465 6.11723 7.05975 6.22702C6.86485 6.33681 6.70672 6.48416 6.58545 6.66881C6.46421 6.85365 6.37605 7.06378 6.32087 7.29939C6.26539 7.535 6.2379 7.77852 6.2379 8.03015C6.2379 8.27123 6.26557 8.50549 6.32099 8.733C6.37647 8.96047 6.4648 9.16531 6.58604 9.34736C6.70728 9.52936 6.86559 9.67517 7.06084 9.78497C7.25598 9.89476 7.49342 9.94965 7.7732 9.94965C8.1846 9.94965 8.50225 9.84445 8.72649 9.63389C8.9508 9.42339 9.08138 9.11818 9.11838 8.71829H7.8697V7.77663H10.2373V10.8715H9.44949L9.32336 10.2223C9.10206 10.5108 8.85693 10.7127 8.58819 10.8275ZM12.2495 5.14484V9.80478H15V10.8671H11.0115V5.14484H12.2495Z" fill="#4CA4DA"/>
</svg>

<svg xmlns="http://www.w3.org/2000/svg" width="16" height="16" fill="none"><path fill="#4CA4DA" fill-rule="evenodd" d="M10 3c1.188 0 2.295.288 3.227.784C11.93 2.683 10.133 2 8.144 2 4.198 2 1 4.686 1 8s3.198 6 7.144 6c1.989 0 3.787-.682 5.083-1.784A6.868 6.868 0 0 1 10 13c-3.314 0-6-2.239-6-5s2.686-5 6-5Zm-1.412 7.828c-.269.114-.54.172-.814.172-.432 0-.82-.076-1.166-.229a2.498 2.498 0 0 1-.873-.63 2.8 2.8 0 0 1-.545-.944A3.516 3.516 0 0 1 5 8.028c0-.428.063-.826.19-1.193.125-.366.307-.686.543-.96a2.49 2.49 0 0 1 .872-.642A2.81 2.81 0 0 1 7.771 5c.29 0 .57.044.842.133.271.088.516.219.735.39.218.172.399.384.541.635.142.252.23.54.261.866H8.965c-.074-.32-.217-.56-.427-.721a1.23 1.23 0 0 0-.767-.24c-.28 0-.516.054-.711.164-.195.11-.353.257-.475.442-.12.185-.209.395-.264.63a3.177 3.177 0 0 0 0 1.434c.055.227.144.432.265.614.121.182.28.328.475.438.195.11.432.165.712.165.412 0 .73-.106.953-.316.225-.21.355-.516.392-.916H7.87v-.941h2.367v3.094H9.45l-.126-.649c-.22.289-.466.49-.735.606Zm3.662-5.683v4.66H15v1.062h-3.989V5.145h1.239Z" clip-rule="evenodd"/></svg>
